!!!!SEGMENT: Distler_Jahrkreis_18_Mit-Freuden-zart.krn
!!!COM: Distler, Hugo
!!!CDT: 1908-1942
!!!OPR@@DE: Der Jahrkreis
!!!OPR@EN: The Year Cycle
!!!OTL@@DE: Mit Freuden zart
!!!OTL@EN: With high delight
!!!OPS: 5
!!!ONM: 18
**kern	**text	**text	**kern	**text	**text	**kern	**text	**text
*part3	*part3	*part3	*part2	*part2	*part2	*part1	*part1	*part1
*staff3	*staff3	*	*staff2	*staff2	*staff2	*staff1	*staff1	*staff1
*Ialto	*	*	*Isoprn	*	*	*Isoprn	*	*
*clefG2	*	*	*clefG2	*	*	*clefG2	*	*
*k[f# c# g# d#]	*	*	*k[f# c# g# d#]	*	*	*k[f# c# g# d#]	*	*
*MM120	*	*	*MM120	*	*	*MM120	*	*
*M4/4	*	*	*M4/4	*	*	*M4/4	*	*
=1	=1	=1	=1	=1	=1	=1	=1	=1
1r	.	.	1r	.	.	4r	.	.
.	.	.	.	.	.	4e	Mit	beid',
.	.	.	.	.	.	4g#	Freu-	gross
.	.	.	.	.	.	4a	den	und
=2	=2	=2	=2	=2	=2	=2	=2	=2
1r	.	.	4B	Mit	beid',	2b,	zart	klein,
.	.	.	(4.B	Freu-	gross_	.	.	.
.	.	.	.	.	.	4ee	zu	von
.	.	.	8c#L	.	.	.	.	.
.	.	.	8d#	.	.	([4dd#	die-	Her-
.	.	.	8eJ)	.	.	.	.	.
=3	=3	=3	=3	=3	=3	=3	=3	=3
4r	.	.	4f#	den	und	8dd#L]	.	.
.	.	.	.	.	.	8cc#J	.	.
4B	Mit	beid',	2g#,	zart	klein,	4b	.	.
(8AL	Freu-	gross	.	.	.	4cc#)	.	.
8BJ)	.	.	.	.	.	.	.	.
(8c#L	den	und	4a	zu	von	4cc#	ser	zen
8d#J)	.	.	.	.	.	.	.	.
!!LO:LB:g=original
=4	=4	=4	=4	=4	=4	=4	=4	=4
4.e,	zart	klein,	4g#	die-	Her-	4b,	Fahrt	rein,
.	.	.	4f#	ser	zen	4.cc#	lasst	mit
8d#	zu	von	.	.	.	.	.	.
4c#	die-	Her-	4e,	Fahrt	rein,	.	.	.
.	.	.	.	.	.	8b	uns	hel-
4c#	ser	zen	[4f#	lasst_	mit_	4a	zu-	lem
=5	=5	=5	=5	=5	=5	=5	=5	=5
8B,	Fahrt	rein,	8f#]	.	.	4g#	gleich	Ton
8B	lasst	mit	8e	uns	hel-	.	.	.
8B	uns	hel-	4dn	zu-	lem	(4.f#	froeh-	frei_
8B	zu-	lem	.	.	.	.	.	.
4A	gleich	Ton	4c#	gleich	Ton	.	.	.
.	.	.	.	.	.	8g#)	.	.
8G#	froeh-	frei	4c#	froeh-	frei	4a	lich	er-
8A	lich	er-	.	.	.	.	.	.
=6	=6	=6	=6	=6	=6	=6	=6	=6
2B	sin-	klin-	4e	lich	er-	2f#	sin-	klin-
.	.	.	4d#X	sin-	klin-	.	.	.
2e	gen,	gen.	2e	gen,	gen.	2e	gen,	gen.
=7:|!	=7	=7	=7:|!	=7	=7	=7:|!	=7	=7
1r	.	.	4e	Das	.	2ee	Das	.
.	.	.	(4.g#	e-	.	.	.	.
.	.	.	.	.	.	4dd#	e-	.
.	.	.	8f#)	.	.	.	.	.
.	.	.	4e	wig'	.	4cc#	wig'	.
!!LO:LB:g=original
=8	=8	=8	=8	=8	=8	=8	=8	=8
1r	.	.	4d#,	Heil	.	4b,	Heil	.
.	.	.	4c#	wird	.	4ee	wird	.
.	.	.	4f#	uns	.	(4.dd#	uns_	.
.	.	.	4g#	zu-	.	.	.	.
.	.	.	.	.	.	8ee	.	.
=9	=9	=9	=9	=9	=9	=9	=9	=9
2r	.	.	4a#,	teil;	.	4ff#	.	.
.	.	.	4b	denn	.	4dd#)	.	.
4r	.	.	(4e	Je-	.	2cc#	zu-	.
4f#	Denn	.	4f#)	.	.	.	.	.
=10	=10	=10	=10	=10	=10	=10	=10	=10
2B	Je-	.	4g#	sus	.	4.b,	teil;	.
.	.	.	(4.an	Christ_	.	.	.	.
.	.	.	.	.	.	8b	denn	.
2c#	sus	.	.	.	.	4e	Je-	.
.	.	.	8g#L	.	.	.	.	.
.	.	.	8f#	.	.	4f#	sus	.
.	.	.	8eJ	.	.	.	.	.
=11	=11	=11	=11	=11	=11	=11	=11	=11
8B,	Christ	.	4d#),	.	.	4g#,	Christ	.
8B	er-	.	.	.	.	.	.	.
(4.b	stan-	.	4e	er-	.	4f#	er-	.
.	.	.	8c#	stan-	.	(8g#L	stan-	.
8a#)	.	.	8c#	den	.	8a#J	.	.
(8g#L	den	.	4B,	ist,	.	[4b	.	.
8f#J)	.	.	.	.	.	.	.	.
!!LO:LB:g=original
=12	=12	=12	=12	=12	=12	=12	=12	=12
4e,	ist,	.	4f#	was	.	8b])	.	.
.	.	.	.	.	.	8b	den	.
(4.d#	was_	.	4f#	er	.	2b,	ist,	.
.	.	.	(8g#L	laesst_	.	.	.	.
8c#)	.	.	8f#	.	.	.	.	.
4B	er	.	8e	.	.	4b	was	.
.	.	.	8d#J)	.	.	.	.	.
=13	=13	=13	=13	=13	=13	=13	=13	=13
*M6/4	*	*	*M6/4	*	*	*M6/4	*	*
4e	laesst	.	4.c#	reich-	.	4cc#	er	.
(4.e	reich-	.	.	.	.	4an	laesst	.
.	.	.	8c#	lich	.	.	.	.
.	.	.	4d#	ver-	.	2f#	reich-	.
8d#L	.	.	.	.	.	.	.	.
8c#	.	.	(4.e	kuen-	.	.	.	.
8BJ)	.	.	.	.	.	.	.	.
4A	lich	.	.	.	.	4g#	lich	.
.	.	.	8d#	.	.	.	.	.
4c#	ver-	.	[4c#	.	.	4a	ver-	.
=14	=14	=14	=14	=14	=14	=14	=14	=14
*M4/4	*	*	*M4/4	*	*	*M4/4	*	*
2B	kuen-	.	4c#]	.	.	2f#	kuen-	.
.	.	.	4d#)	.	.	.	.	.
2e	den.	.	2e	den.	.	2e	den.	.
=||15	=15	=15	=||15	=15	=15	=||15	=15	=15
1r	.	.	1r	.	.	4r	.	.
.	.	.	.	.	.	4e	Singt	und
.	.	.	.	.	.	4g#	Lob	tut
.	.	.	.	.	.	4a	und	sein'
=16	=16	=16	=16	=16	=16	=16	=16	=16
1r	.	.	4B	Singt	und	2b,	Dank	Ehr'
.	.	.	(4.B	Lob_	tut_	.	.	.
.	.	.	.	.	.	4ee	mit	je
.	.	.	8c#L	.	.	.	.	.
.	.	.	8d#	.	.	([4dd#	frei-	mehr_
.	.	.	8eJ)	.	.	.	.	.
=17	=17	=17	=17	=17	=17	=17	=17	=17
1r	.	.	4f#	und	sein'	8dd#L]	.	.
.	.	.	.	.	.	8cc#J	.	.
.	.	.	2g#,	Dank	Ehr'	4b	.	.
.	.	.	.	.	.	4cc#)	.	.
.	.	.	.	.	.	.	.	.
.	.	.	4a	mit	je	4cc#	em	und
.	.	.	.	.	.	.	.	.
=18	=18	=18	=18	=18	=18	=18	=18	=18
1r	.	.	4g#	frei-	mehr	4b,	Klang	mehr
.	.	.	4f#	em	und	4.cc#	un-	mit
.	.	.	.	.	.	.	.	.
.	.	.	4e,	Klang	mehr	.	.	.
.	.	.	.	.	.	8b	serm	Wort
.	.	.	[4f#	un-	mit_	4a	Herrn	und
!!LO:LB:g=original
=19	=19	=19	=19	=19	=19	=19	=19	=19
1r	.	.	8f#]	.	.	4g#	zu	Tat
.	.	.	8e	serm	Wort	.	.	.
.	.	.	4dn	Herrn	und	(4.f#	al-	weit_
.	.	.	.	.	.	.	.	.
.	.	.	4c#	zu	Tat	.	.	.
.	.	.	.	.	.	8g#)	.	.
.	.	.	4c#	al-	weit	4a	len	aus-
.	.	.	.	.	.	.	.	.
=20	=20	=20	=20	=20	=20	=20	=20	=20
1r	.	.	4e	len	aus-	2f#	Zei-	brei-
.	.	.	4d#X	Zei-	brei-	.	.	.
.	.	.	2e	ten,	ten	2e	ten,	ten
=21:|!	=21	=21	=21:|!	=21	=21	=21:|!	=21	=21
1r	.	.	4e	so	.	2ee	so	.
.	.	.	(4.g#	wird_	.	.	.	.
.	.	.	.	.	.	4dd#	wird	.
.	.	.	8f#)	.	.	.	.	.
.	.	.	4e	er	.	4cc#	er	.
=22	=22	=22	=22	=22	=22	=22	=22	=22
1r	.	.	4d#,	uns	.	4b,	uns	.
.	.	.	4c#	aus	.	4ee	aus	.
.	.	.	4f#	Lieb',	.	(4.dd#	Lieb',_	.
.	.	.	4g#	und	.	.	.	.
.	.	.	.	.	.	8ee	.	.
=23	=23	=23	=23	=23	=23	=23	=23	=23
1r	.	.	4a#,	Gunst	.	4ff#	.	.
.	.	.	4b	nach	.	4dd#)	.	.
.	.	.	(4e	un-	.	2cc#	und	.
.	.	.	4f#)	.	.	.	.	.
!!LO:LB:g=original
=24	=24	=24	=24	=24	=24	=24	=24	=24
1r	.	.	4g#	serm	.	4.b,	Gunst	.
.	.	.	(4.an	Tod,_	.	.	.	.
.	.	.	.	.	.	8b	nach	.
.	.	.	.	.	.	4e	un-	.
.	.	.	8g#L	.	.	.	.	.
.	.	.	8f#	.	.	4f#	serm	.
.	.	.	8eJ	.	.	.	.	.
=25	=25	=25	=25	=25	=25	=25	=25	=25
1r	.	.	4d#),	.	.	4g#,	Tod	.
.	.	.	.	.	.	.	.	.
.	.	.	4e	frei	.	4f#	frei	.
.	.	.	8c#	al-	.	(8g#L	al-	.
.	.	.	8c#	ler	.	8a#J	.	.
.	.	.	4B,	Not,	.	[4b	.	.
.	.	.	.	.	.	.	.	.
=26	=26	=26	=26	=26	=26	=26	=26	=26
1r	.	.	4f#	zur	.	8b])	.	.
.	.	.	.	.	.	8b	ler	.
.	.	.	4f#	e-	.	2b,	Not,	.
.	.	.	(8g#L	wi-	.	.	.	.
.	.	.	8f#	.	.	.	.	.
.	.	.	8e	.	.	4b	zur	.
.	.	.	8d#J)	.	.	.	.	.
=27	=27	=27	=27	=27	=27	=27	=27	=27
*M6/4	*	*	*M6/4	*	*	*M6/4	*	*
1.r	.	.	4.c#	gen	.	4cc#	e-	.
.	.	.	.	.	.	4an	wi-	.
.	.	.	8c#	Freud'	.	.	.	.
.	.	.	4d#	ge-	.	2f#	gen	.
.	.	.	.	.	.	.	.	.
.	.	.	(4.e	lei-	.	.	.	.
.	.	.	.	.	.	.	.	.
.	.	.	.	.	.	4g#	Freud'	.
.	.	.	8d#	.	.	.	.	.
.	.	.	[4c#	.	.	4a	ge-	.
=28	=28	=28	=28	=28	=28	=28	=28	=28
*M4/4	*	*	*M4/4	*	*	*M4/4	*	*
1r	.	.	4c#]	.	.	2f#	lei-	.
.	.	.	4d#)	.	.	.	.	.
.	.	.	2e	ten.	.	2e	ten.	.
==	==	==	==	==	==	==	==	==
*-	*-	*-	*-	*-	*-	*-	*-	*-
!!!ONB@@DE: Werden beide (2- und 3-stimmigen) Bearbeitungen im Wechsel (mit dem hier unterlegten Vers) gesungen, folgt nach dem 2-stimmigen Satz da capo der 1. Vers.
!!!ONB@EN: If both arrangements (2- and 3-part) are sung alternately (with the verse provided here), the 2-part movement is followed by the 1st verse da capo.
!!!YOR: Bärenreiter-Ausgabe 676
!!!YOY: 1933
!!!EFL: 18/52
!!!URL-github: https://github.com/LucasHofmann/distler/blob/main/Jahrkreis/Distler_Jahrkreis_18_Mit-Freuden-zart.krn
!!!URL-pdf: https://imslp.eu/files/imglnks/euimg/7/7d/IMSLP834545-PMLP518834-5-jahrkreis-EA--original-paper-600dpi.pdf#page=36 First edition, Kassel: Bärenreiter, 1933. Plate BA 676.
!!!URL-imslp: https://imslp.org/wiki/Der_Jahrkreis,_Op.5_(Distler,_Hugo)#IMSLP834545
!!!system-decoration: [(s1,s2,s3)]
!!!ENC: Lucas Hofmann
!!!END: 2023/10/27
!!!title: @{OPR@@DE}, Op. @{OPS}, Nr. @{ONM}. <i>@{OTL@@DE}</i>